X:10
T:Poor Old Horse - Baker
C:Taken down from Matt. Baker, by H.Fl.S.
%%VWML:SBG-1-1-362-0
F:http://www.vwml.org/record/SBG/1/1/362
Z:Original Sibleius Transcription by Martin and Shan Graebe
L:1/8
M:2/4
I:linebreak $
K:Bb
F | B c d c | B2 A G | F G F G | B3 d | e d e c | d2 c A | B A B G | F2 z d | e e d c |$ BG F B | 
c d e c | d2 z c | d e f d | cB G F | G F G B | B2 || B G | F2 G A | !fermata!B3 z |] 
T:Poor Old Horse - Parsons
T:Taken down from Jas. Parsons by F.W.B.
L:1/8
M:2/4
I:linebreak $
K:Bb
F | BBBF | B2 Bc | df e d | f2 dB | GF B2 | GGFD |$ F4 d | eedc | BBAB | BBGD | E4 DE | F2 GA | 
B4 |] 
T:Poor Old Horse - Masons
T:Nottingham Melody, “Mason’s Nursery Rhymes & County Songs” 1877.
L:1/8
M:6/8
I:linebreak $
K:F
C | F2 F G2 E | F3 A2 B | c c c B B G | F3 E2 F | G2 G E2 G | c2 c E2 E |$ F2 F G2 G | C3 z2 A | 
B2 A c2 F | (F2 E) D2 C | D2 D B2 G | (F2 E) z2 D |$ C2 F F2 F/ F/ | F2 G A2 B | c2 c BA G | 
F3 G2 E | C3 D2 E | F3 z2  |] 



